static/fa/svgs/regular/face-flushed.svg

<svg xmlns="http://www.w3.org/2000/svg" viewBox="0 0 512 512"><!--! Font Awesome Free 6.1.1 by @fontawesome - https://fontawesome.com License - https://fontawesome.com/license/free (Icons: CC BY 4.0, Fonts: SIL OFL 1.1, Code: MIT License) Copyright 2022 Fonticons, Inc.--><path d="M320 336c13.3 0 24 10.7 24 24s-10.7 24-24 24H192c-13.3 0-24-10.7-24-24s10.7-24 24-24h128zM136.4 224c0-13.3 10.7-24 24-24 13.2 0 24 10.7 24 24s-10.8 24-24 24c-13.3 0-24-10.7-24-24zM80 224c0-44.2 35.8-80 80-80s80 35.8 80 80-35.8 80-80 80-80-35.8-80-80zm80 48c26.5 0 48-21.5 48-48s-21.5-48-48-48-48 21.5-48 48 21.5 48 48 48zm216.4-48c0 13.3-10.8 24-24 24-13.3 0-24-10.7-24-24s10.7-24 24-24c13.2 0 24 10.7 24 24zm55.6 0c0 44.2-35.8 80-80 80s-80-35.8-80-80 35.8-80 80-80 80 35.8 80 80zm-80-48c-26.5 0-48 21.5-48 48s21.5 48 48 48 48-21.5 48-48-21.5-48-48-48zm160 80c0 141.4-114.6 256-256 256S0 397.4 0 256 114.6 0 256 0s256 114.6 256 256zM256 464c114.9 0 208-93.1 208-208S370.9 48 256 48 48 141.1 48 256s93.1 208 208 208z"/></svg>

<svg xmlns="http://www.w3.org/2000/svg" viewBox="0 0 512 512"><!--! Font Awesome Free 6.1.1 by @fontawesome - https://fontawesome.com License - https://fontawesome.com/license/free (Icons: CC BY 4.0, Fonts: SIL OFL 1.1, Code: MIT License) Copyright 2022 Fonticons, Inc. --><path d="M320 336C333.3 336 344 346.7 344 360C344 373.3 333.3 384 320 384H192C178.7 384 168 373.3 168 360C168 346.7 178.7 336 192 336H320zM136.4 224C136.4 210.7 147.1 200 160.4 200C173.6 200 184.4 210.7 184.4 224C184.4 237.3 173.6 248 160.4 248C147.1 248 136.4 237.3 136.4 224zM80 224C80 179.8 115.8 144 160 144C204.2 144 240 179.8 240 224C240 268.2 204.2 304 160 304C115.8 304 80 268.2 80 224zM160 272C186.5 272 208 250.5 208 224C208 197.5 186.5 176 160 176C133.5 176 112 197.5 112 224C112 250.5 133.5 272 160 272zM376.4 224C376.4 237.3 365.6 248 352.4 248C339.1 248 328.4 237.3 328.4 224C328.4 210.7 339.1 200 352.4 200C365.6 200 376.4 210.7 376.4 224zM432 224C432 268.2 396.2 304 352 304C307.8 304 272 268.2 272 224C272 179.8 307.8 144 352 144C396.2 144 432 179.8 432 224zM352 176C325.5 176 304 197.5 304 224C304 250.5 325.5 272 352 272C378.5 272 400 250.5 400 224C400 197.5 378.5 176 352 176zM512 256C512 397.4 397.4 512 256 512C114.6 512 0 397.4 0 256C0 114.6 114.6 0 256 0C397.4 0 512 114.6 512 256zM256 464C370.9 464 464 370.9 464 256C464 141.1 370.9 48 256 48C141.1 48 48 141.1 48 256C48 370.9 141.1 464 256 464z"/></svg>
